X:2372
T: Green Mountain Petronella
O:england
R:reel
M:2/4
L:1/16
K:A
|: "A"E2A2 AGAF | E2c2 cABc | "Bm"d2dc Bcde | "E7"f2e2 e4 |
|  "A"E2A2 AGAF | E2c2 cABc | "Bm"dedc BAGA | "E7"B2A2 "A"A2z2 :|
|: ce \
|| "A"a2a2 "E7"g2g2 | "D"fgaf "A"e4 | "D"fefg "A"a2 c2 | "E7"c2B2 B4 |
| "Fm"a2a2 "E"g2g2 | "D"fgaf "A"e4 | "D"fefg "A"a2c2 | "E7"c2B2 "A"A2z2 :|


